X: 1
T:Worth the Wait
M:C|
L:1/8
Q:80
C:Michael Grey
S:Hornpipe
K:HP
[| e|:
{g}B3/4g/4{a}g3/4f/4{g}e3/4f/4{a}g3/4f/4|
{gef}e3/4d/4{g}B3/4e/4{g}d3/4B/4{d}A3/4B/4|  !
{g}G3/4A/4{gAd}A/4B3/4{g}B3/4A/4{g}B3/4d/4|
{g}e3/4f/4{a}g3/4f/4{gef}e{A}e{g}B3/4g/4{a}g3/4f/4{g}e3/4f/4{a}g3/4f/4|
{gef}e3/4d/4{g}B3/4e/4{g}d3/4B/4{d}A3/4B/4|  !
{g}G3/4A/4{gAd}A/4B3/4{g}B3/4d/4{gdedG}d|
{g}e3/4f/4{a}g3/4f/4|1 {gef}e{A}e:|2
{gef}e{A}e/2|] |:  !
f/2|
{a}g3/4B/4{g}B3/4f/4{a}g3/4f/4{gef}e3/4f/4|
{a}g3/4G/4{g}G3/4{d}B/4{G}B3/4c/4{g}d3/4B/4|
{a}g3/4a/4e3/4f/4{a}g3/4e/4{g}d3/4B/4|  !
{g}e3/4f/4{a}g3/4f/4{gef}e{A}e/2f/2{a}g3/4B/4{g}B3/4f/4{a}g3/4f/4{gef}e3
/4f/4|
{a}g3/4G/4{g}G3/4{d}B/4{G}B3/4c/4{g}d3/4B/4|
{a}g3/4a/4e3/4f/4{a}g3/4e/4{g}d3/4B/4|  !
{g}e3/4f/4{a}g3/4f/4{gef}e{A}e/2:| |:
g/2|
{a}G3/4{d}B/4{G}B3/4c/4{gdedG}d{g}B3/4g/4|
{a}g3/4d/4{g}B3/4g/4{a}G3/4B/4{gde}d3/4B/4|  !
{g}G3/4{d}B/4{G}B3/4c/4{gdedG}d{g}B3/4a/4|
g3/4e/4{g}f3/4d/4{gef}e{A}e/2g/2{a}G3/4{d}B/4{G}B3/4c/4{gdedG}d{g}B3/4g/
4|
{a}g3/4d/4{g}B3/4g/4{a}G3/4B/4{gde}d3/4B/4|  !
{g}G3/4{d}B/4{G}B3/4c/4{gdedG}d{g}B3/4a/4|
g3/4e/4{g}f3/4d/4|1 {gef}e{A}e/2:|2
{gef}e:| |:  !
{g}e/2f/2|
{a}g3/4B/4{gBeBG}B{g}B3/4g/4{f}g3/4B/4|
{g}G3/4d/4{gdedG}d{g}B3/4d/4{g}e3/4f/4|  !
{a}g3/4B/4{gBeBG}B{g}B3/4g/4{f}g/2d/2|
{g}e3/4f/4{a}g3/4f/4{gef}e{A}e/2f/2{a}g3/4B/4{gBeBG}B{g}B3/4g/4{f}g3/4B/
4|
{g}G3/4d/4{gdedG}d{g}B3/4d/4{g}e3/4f/4|  !
{a}g3/4a/4e3/4f/4{a}g3/4e/4{g}d3/4B/4|
{g}e3/4f/4{a}g3/4f/4|1 {gef}e:|2
{gef}e{A}e:|  !
